X:15
T:Rolling in the Ryegrass
T:The Shannon Breezes
R:reel
M:4/4
L:1/8
K:D
|:ABAF DFAF|G2BG dGBG|ABAF DFAF|GBAF EFDF:|
|:ABde f2fd|g2ge fedB|ABde fefg|afdf efdB:|
%%text A variation on the `A' part:
ABAF DFAF|GFEF GBdB|ABAF DFAF|GBAF EFDF|
